packages/core/src/svgs/alex.svg

<svg width="24" height="24" viewBox="0 0 24 24" fill="none" xmlns="http://www.w3.org/2000/svg">
<g clip-path="url(#clip0_31_5872)">
<path d="M0 0H24V24H0V0Z" fill="url(#paint0_linear_31_5872)"/>
<path d="M6.62568 16.6588C6.40672 16.4049 6.20621 16.1356 6.02568 15.8531L9.86997 12.0002L6.01711 8.14735C6.20139 7.8645 6.40282 7.59449 6.62139 7.34164L11.2843 12.0002L6.62568 16.6588ZM5.51139 9.07735C5.36568 9.41164 5.24139 9.76307 5.14282 10.1145L7.02854 12.0002L5.14282 13.8816C5.24139 14.2331 5.36568 14.5802 5.51568 14.9145L8.43854 12.0002L5.51568 9.07735H5.51139ZM12 12.7202L7.34139 17.3745C7.59425 17.5974 7.86425 17.7945 8.14711 17.9745L12 14.1302L15.8571 17.9831C16.1357 17.8031 16.4057 17.5974 16.6585 17.3831L12 12.7159V12.7202ZM14.9228 18.4845L12 15.5574L9.07711 18.4802C9.41139 18.6302 9.76282 18.7545 10.1143 18.8531L12 16.9674L13.8814 18.8531C14.2377 18.7562 14.5859 18.6315 14.9228 18.4802V18.4845ZM12 11.2845L16.6585 6.62592C16.4046 6.40696 16.1354 6.20645 15.8528 6.02592L12 9.87021L8.14711 6.01735C7.86425 6.20164 7.59425 6.40307 7.34139 6.62164L12 11.2845ZM18.4843 14.9231C18.6343 14.5888 18.7585 14.2416 18.8571 13.8902L16.9714 12.0002L18.8571 10.1145C18.7585 9.75878 18.6343 9.41164 18.4843 9.07307L15.5571 12.0002L18.48 14.9231H18.4843ZM14.1257 12.0002L17.9785 8.14735C17.7985 7.8645 17.5928 7.59449 17.3785 7.34164L12.7157 12.0002L17.37 16.6588C17.5928 16.4016 17.7943 16.1359 17.97 15.8531L14.13 12.0002H14.1257ZM12 8.44307L14.9228 5.51592C14.5873 5.36501 14.2405 5.24035 13.8857 5.14307L12 7.02878L10.1143 5.14307C9.76282 5.24164 9.41568 5.36592 9.08139 5.51592L11.9957 8.43878L12 8.44307Z" fill="white"/>
</g>
<defs>
<linearGradient id="paint0_linear_31_5872" x1="3.85714" y1="3.21429" x2="19.2857" y2="21.6429" gradientUnits="userSpaceOnUse">
<stop stop-color="#6B2CFE"/>
<stop offset="1" stop-color="#078CE0"/>
</linearGradient>
<clipPath id="clip0_31_5872">
<rect width="24" height="24" fill="white"/>
</clipPath>
</defs>
</svg>

<svg xmlns="http://www.w3.org/2000/svg" width="24" height="24" fill="none" viewBox="0 0 24 24"><g clip-path="url(#a)"><path fill="url(#b)" d="M0 0h24v24H0z"/><path fill="#fff" d="M6.626 16.659a7 7 0 0 1-.6-.806L9.87 12 6.017 8.147a7.5 7.5 0 0 1 .604-.805L11.284 12zM5.51 9.077a8 8 0 0 0-.368 1.037L7.029 12l-1.886 1.882c.098.351.223.698.373 1.033L8.439 12 5.516 9.077zM12 12.72l-4.659 4.655q.38.332.806.6L12 14.13l3.857 3.853c.279-.18.549-.386.802-.6L12 12.716zm2.923 5.765L12 15.557 9.077 18.48c.334.15.686.274 1.037.373L12 16.967l1.881 1.886a7 7 0 0 0 1.042-.373zM12 11.285l4.659-4.66a7 7 0 0 0-.806-.6L12 9.87 8.147 6.017a7.5 7.5 0 0 0-.806.605zm6.484 3.638q.225-.503.373-1.033L16.971 12l1.886-1.886a7.5 7.5 0 0 0-.373-1.04L15.557 12l2.923 2.923zM14.126 12l3.853-3.853a7.4 7.4 0 0 0-.6-.805L12.715 12l4.654 4.659q.335-.384.6-.806L14.13 12zM12 8.443l2.923-2.927a7 7 0 0 0-1.037-.373L12 7.03l-1.886-1.886a7.4 7.4 0 0 0-1.033.373l2.915 2.923z"/></g><defs><linearGradient id="b" x1="3.857" x2="19.286" y1="3.214" y2="21.643" gradientUnits="userSpaceOnUse"><stop stop-color="#6B2CFE"/><stop offset="1" stop-color="#078CE0"/></linearGradient><clipPath id="a"><path fill="#fff" d="M0 0h24v24H0z"/></clipPath></defs></svg>
